X: 40434
T: Tom Mhic's
R: polka
M: 2/4
K: Dmajor
|:DE FG|AG FE|DE FG|A2 A2|
DE FG|AG FE|DE FA|G2 G2:|
|:dB AG|B2 A2|DE FG|A2 A2|
dB AG|B2 A2|DE FA|G2 G2:|

